Newaita-dark/apps/22/mintreport.svg

<svg height="22pt" viewBox="0 0 22 22" width="22pt" xmlns="http://www.w3.org/2000/svg" xmlns:xlink="http://www.w3.org/1999/xlink"><linearGradient id="a" gradientUnits="userSpaceOnUse" x1="10.9151146" x2="10.9151146" y1="19.27333615" y2="20.18292934324"><stop offset="0" stop-opacity=".27451"/><stop offset="1" stop-opacity="0"/></linearGradient><linearGradient id="b"><stop offset="0" stop-opacity=".313725"/><stop offset=".222222" stop-opacity=".27451"/><stop offset="1" stop-opacity="0"/></linearGradient><radialGradient id="c" cx="450.90894" cy="189.57936" gradientTransform="matrix(.00000012 -.0537161 -.0966889 -.00000007 34.475434 43.721792)" gradientUnits="userSpaceOnUse" r="21.166656" xlink:href="#b"/><radialGradient id="d" cx="450.90894" cy="189.57936" gradientTransform="matrix(-.00000012 .0537161 .0966889 .00000007 -12.645221 -5.175143)" gradientUnits="userSpaceOnUse" r="21.166656" xlink:href="#b"/><radialGradient id="e" cx="450.90894" cy="189.57936" gradientTransform="matrix(-.00000012 -.0537161 .0966889 -.00000007 -12.645221 43.721792)" gradientUnits="userSpaceOnUse" r="21.166656" xlink:href="#b"/><radialGradient id="f" cx="450.90894" cy="189.57936" gradientTransform="matrix(.00000012 .0537161 -.0966889 .00000007 34.475432 -5.175142)" gradientUnits="userSpaceOnUse" r="21.166656" xlink:href="#b"/><linearGradient id="g" gradientTransform="matrix(.0518029 0 0 .149471 -4.024634 23.128427)" gradientUnits="userSpaceOnUse" x1="323.51324" x2="323.51324" y1="-141.41458" y2="-25.791676"><stop offset="0" stop-color="#8d6e63"/><stop offset="1" stop-color="#795548"/></linearGradient><linearGradient id="h" gradientUnits="userSpaceOnUse" x1="254" x2="254" y1="212.33333" y2="-115.75"><stop offset="0" stop-color="#e0e0e0"/><stop offset="1" stop-color="#eee"/></linearGradient><linearGradient id="i" gradientUnits="userSpaceOnUse" x1="10.915104" x2="10.915104" y1="19.27332442218" y2="1.99107562629"><stop offset="0" stop-color="#424242"/><stop offset="1" stop-color="#616161"/></linearGradient><path d="m5.457031 19.273438h10.914063v.910156h-10.914063zm0 0" fill="url(#a)"/><path d="m16.371094 19.273438h1.820312v-.910157h-1.820312zm0 0" fill="url(#c)"/><path d="m5.457031 19.273438h-1.820312v.910156h1.820312zm0 0" fill="url(#d)"/><path d="m5.457031 19.273438h-1.820312v-.910157h1.820312zm0 0" fill="url(#e)"/><path d="m16.371094 19.273438h1.820312v.910156h-1.820312zm0 0" fill="url(#f)"/><path d="m4.546875 4.265625h12.734375c.503906 0 .910156.40625.910156.910156v13.1875c0 .503907-.40625.910157-.910156.910157h-12.734375c-.5 0-.910156-.40625-.910156-.910157v-13.1875c0-.503906.410156-.910156.910156-.910156zm0 0" fill="url(#g)"/><path d="m4.546875 4.328125c-.503906 0-.910156.40625-.910156.910156v.113281c0-.503906.40625-.910156.910156-.910156h12.734375c.503906 0 .910156.40625.910156.910156v-.113281c0-.503906-.40625-.910156-.910156-.910156zm0 0" fill="#fff" fill-opacity=".392157"/><path d="m4.546875 19.222656c-.503906 0-.910156-.40625-.910156-.910156v-.113281c0 .503906.40625.910156.910156.910156h12.734375c.503906 0 .910156-.40625.910156-.910156v.113281c0 .503906-.40625.910156-.910156.910156zm0 0" fill-opacity=".196078"/><path d="m105.808078-115.736752h296.335337c11.726153 0 21.179796 9.453643 21.179796 21.179796v306.879785c0 11.726153-9.453643 21.179796-21.179796 21.179796h-296.335337c-11.635253 0-21.179796-9.453643-21.179796-21.179796v-306.879785c0-11.726153 9.544543-21.179796 21.179796-21.179796zm0 0" fill="none" stroke="#212121" stroke-linecap="round" stroke-width="3" transform="matrix(.0429729 0 0 .0429729 0 9.239163)"/><path d="m126.987873-105.192304h253.975747c5.908526 0 10.635348 4.726821 10.635348 10.635348v296.335337c0 5.817627-4.726822 10.544448-10.635348 10.544448h-253.975747c-5.817626 0-10.544447-4.726821-10.544447-10.544448v-296.335337c0-5.908527 4.726821-10.635348 10.544447-10.635348zm0 0" fill="url(#h)" stroke="#212121" stroke-linecap="round" stroke-linejoin="round" stroke-width="3" transform="matrix(.0429729 0 0 .0429729 0 9.239163)"/><path d="m8.1875 1.992188c-.253906 0-.457031.203124-.457031.453124v.457032h-1.363281c-.253907 0-.453126.199218-.453126.453125v1.820312c0 .25.199219.453125.453126.453125h9.097656c.25 0 .453125-.203125.453125-.453125v-1.820312c0-.253907-.203125-.453125-.453125-.453125h-1.367188v-.457032c0-.25-.203125-.453124-.453125-.453124zm0 0" fill="url(#i)"/><path d="m5.914062 5.175781v.453125c0 .253906.199219.457032.453126.457032h9.097656c.25 0 .453125-.203126.453125-.457032v-.453125c0 .25-.203125.453125-.453125.453125h-9.097656c-.253907 0-.453126-.203125-.453126-.453125zm0 0" fill-opacity=".235294"/><path d="m8.1875 1.992188c-.253906 0-.457031.203124-.457031.453124v.171876c0-.253907.203125-.457032.457031-.457032h5.457031c.25 0 .453125.203125.453125.457032v-.171876c0-.25-.203125-.453124-.453125-.453124zm-1.820312.910156c-.253907 0-.453126.199218-.453126.453125v.171875c0-.253906.199219-.457032.453126-.457032h1.363281v-.167968zm7.730468 0v.167968h1.367188c.25 0 .453125.203126.453125.457032v-.171875c0-.253907-.203125-.453125-.453125-.453125zm0 0" fill="#fff" fill-opacity=".313725"/><path d="m720.103039 175.215911c-22.331439 0-40.196591 17.865152-40.196591 39.853031v40.196592h-119.902653c-22.33144 0-39.853031 17.521591-39.853031 39.85303v160.099245c0 21.987879 17.521591 39.853031 39.853031 39.853031h800.152662c21.987879 0 39.85303-17.865152 39.85303-39.853031v-160.099245c0-22.331439-17.865151-39.85303-39.85303-39.85303h-120.246214v-40.196592c0-21.987879-17.865152-39.853031-39.853031-39.853031zm0 0" fill="none" stroke="#212121" stroke-linecap="round" stroke-linejoin="round" stroke-width="11.338583" transform="scale(.0113699)"/><path d="m5.003906 17.910156v.226563c0 .25.203125.453125.453125.453125h10.914063c.253906 0 .457031-.203125.457031-.453125v-.226563c0 .25-.203125.453125-.457031.453125h-10.914063c-.25 0-.453125-.203125-.453125-.453125zm0 0" fill-opacity=".235294"/><g fill="#f44336"><path d="m10.460938 6.992188h.910156c.25 0 .453125.207031.453125.457031v5.457031c0 .25-.203125.453125-.453125.453125h-.910156c-.25 0-.457032-.203125-.457032-.453125v-5.457031c0-.25.207032-.457031.457032-.457031zm0 0"/><path d="m10.460938 14.726562h.910156c.25 0 .453125.1875.453125.417969v.980469c0 .230469-.203125.417969-.453125.417969h-.910156c-.25 0-.457032-.1875-.457032-.417969v-.980469c0-.230469.207032-.417969.457032-.417969zm0 0"/></g></svg>

<?xml version="1.0" encoding="UTF-8"?>
<svg xmlns="http://www.w3.org/2000/svg" xmlns:xlink="http://www.w3.org/1999/xlink" width="22pt" height="22pt" viewBox="0 0 22 22" version="1.1">
<defs>
<linearGradient id="linear0" gradientUnits="userSpaceOnUse" x1="254" y1="233.5" x2="254" y2="254.66667" gradientTransform="matrix(0.0429729,0,0,0.0429729,-0.00000171891,9.239164)">
<stop offset="0" style="stop-color:rgb(0%,0%,0%);stop-opacity:0.27451;"/>
<stop offset="1" style="stop-color:rgb(0%,0%,0%);stop-opacity:0;"/>
</linearGradient>
<radialGradient id="radial0" gradientUnits="userSpaceOnUse" cx="450.90894" cy="189.57936" fx="450.90894" fy="189.57936" r="21.166656" gradientTransform="matrix(0.000000119742,-0.0537161,-0.0966889,-0.0000000698078,34.475434,43.721792)">
<stop offset="0" style="stop-color:rgb(0%,0%,0%);stop-opacity:0.313725;"/>
<stop offset="0.222222" style="stop-color:rgb(0%,0%,0%);stop-opacity:0.27451;"/>
<stop offset="1" style="stop-color:rgb(0%,0%,0%);stop-opacity:0;"/>
</radialGradient>
<radialGradient id="radial1" gradientUnits="userSpaceOnUse" cx="450.90894" cy="189.57936" fx="450.90894" fy="189.57936" r="21.166656" gradientTransform="matrix(-0.000000119742,0.0537161,0.0966889,0.0000000698078,-12.645221,-5.175143)">
<stop offset="0" style="stop-color:rgb(0%,0%,0%);stop-opacity:0.313725;"/>
<stop offset="0.222222" style="stop-color:rgb(0%,0%,0%);stop-opacity:0.27451;"/>
<stop offset="1" style="stop-color:rgb(0%,0%,0%);stop-opacity:0;"/>
</radialGradient>
<radialGradient id="radial2" gradientUnits="userSpaceOnUse" cx="450.90894" cy="189.57936" fx="450.90894" fy="189.57936" r="21.166656" gradientTransform="matrix(-0.000000119742,-0.0537161,0.0966889,-0.0000000698078,-12.645221,43.721792)">
<stop offset="0" style="stop-color:rgb(0%,0%,0%);stop-opacity:0.313725;"/>
<stop offset="0.222222" style="stop-color:rgb(0%,0%,0%);stop-opacity:0.27451;"/>
<stop offset="1" style="stop-color:rgb(0%,0%,0%);stop-opacity:0;"/>
</radialGradient>
<radialGradient id="radial3" gradientUnits="userSpaceOnUse" cx="450.90894" cy="189.57936" fx="450.90894" fy="189.57936" r="21.166656" gradientTransform="matrix(0.000000119742,0.0537161,-0.0966889,0.0000000698078,34.475432,-5.175142)">
<stop offset="0" style="stop-color:rgb(0%,0%,0%);stop-opacity:0.313725;"/>
<stop offset="0.222222" style="stop-color:rgb(0%,0%,0%);stop-opacity:0.27451;"/>
<stop offset="1" style="stop-color:rgb(0%,0%,0%);stop-opacity:0;"/>
</radialGradient>
<linearGradient id="linear1" gradientUnits="userSpaceOnUse" x1="323.51324" y1="-141.41458" x2="323.51324" y2="-25.791676" gradientTransform="matrix(0.0518029,0,0,0.149471,-4.024634,23.128427)">
<stop offset="0" style="stop-color:rgb(55.294118%,43.137255%,38.823529%);stop-opacity:1;"/>
<stop offset="1" style="stop-color:rgb(47.45098%,33.333333%,28.235294%);stop-opacity:1;"/>
</linearGradient>
<linearGradient id="linear2" gradientUnits="userSpaceOnUse" x1="254" y1="212.33333" x2="254" y2="-115.75" >
<stop offset="0" style="stop-color:rgb(87.843137%,87.843137%,87.843137%);stop-opacity:1;"/>
<stop offset="1" style="stop-color:rgb(93.333333%,93.333333%,93.333333%);stop-opacity:1;"/>
</linearGradient>
<linearGradient id="linear3" gradientUnits="userSpaceOnUse" x1="960" y1="1695.1182" x2="960" y2="175.11813" gradientTransform="matrix(0.0113699,0,0,0.0113699,0,0)">
<stop offset="0" style="stop-color:rgb(25.882353%,25.882353%,25.882353%);stop-opacity:1;"/>
<stop offset="1" style="stop-color:rgb(38.039216%,38.039216%,38.039216%);stop-opacity:1;"/>
</linearGradient>
</defs>
<g id="surface1">
<path style=" stroke:none;fill-rule:nonzero;fill:url(#linear0);" d="M 5.457031 19.273438 L 16.371094 19.273438 L 16.371094 20.183594 L 5.457031 20.183594 Z M 5.457031 19.273438 "/>
<path style=" stroke:none;fill-rule:nonzero;fill:url(#radial0);" d="M 16.371094 19.273438 L 18.191406 19.273438 L 18.191406 18.363281 L 16.371094 18.363281 Z M 16.371094 19.273438 "/>
<path style=" stroke:none;fill-rule:nonzero;fill:url(#radial1);" d="M 5.457031 19.273438 L 3.636719 19.273438 L 3.636719 20.183594 L 5.457031 20.183594 Z M 5.457031 19.273438 "/>
<path style=" stroke:none;fill-rule:nonzero;fill:url(#radial2);" d="M 5.457031 19.273438 L 3.636719 19.273438 L 3.636719 18.363281 L 5.457031 18.363281 Z M 5.457031 19.273438 "/>
<path style=" stroke:none;fill-rule:nonzero;fill:url(#radial3);" d="M 16.371094 19.273438 L 18.191406 19.273438 L 18.191406 20.183594 L 16.371094 20.183594 Z M 16.371094 19.273438 "/>
<path style=" stroke:none;fill-rule:nonzero;fill:url(#linear1);" d="M 4.546875 4.265625 L 17.28125 4.265625 C 17.785156 4.265625 18.191406 4.671875 18.191406 5.175781 L 18.191406 18.363281 C 18.191406 18.867188 17.785156 19.273438 17.28125 19.273438 L 4.546875 19.273438 C 4.046875 19.273438 3.636719 18.867188 3.636719 18.363281 L 3.636719 5.175781 C 3.636719 4.671875 4.046875 4.265625 4.546875 4.265625 Z M 4.546875 4.265625 "/>
<path style=" stroke:none;fill-rule:nonzero;fill:rgb(100%,100%,100%);fill-opacity:0.392157;" d="M 4.546875 4.328125 C 4.042969 4.328125 3.636719 4.734375 3.636719 5.238281 L 3.636719 5.351562 C 3.636719 4.847656 4.042969 4.441406 4.546875 4.441406 L 17.28125 4.441406 C 17.785156 4.441406 18.191406 4.847656 18.191406 5.351562 L 18.191406 5.238281 C 18.191406 4.734375 17.785156 4.328125 17.28125 4.328125 Z M 4.546875 4.328125 "/>
<path style=" stroke:none;fill-rule:nonzero;fill:rgb(0%,0%,0%);fill-opacity:0.196078;" d="M 4.546875 19.222656 C 4.042969 19.222656 3.636719 18.816406 3.636719 18.3125 L 3.636719 18.199219 C 3.636719 18.703125 4.042969 19.109375 4.546875 19.109375 L 17.28125 19.109375 C 17.785156 19.109375 18.191406 18.703125 18.191406 18.199219 L 18.191406 18.3125 C 18.191406 18.816406 17.785156 19.222656 17.28125 19.222656 Z M 4.546875 19.222656 "/>
<path style="fill:none;stroke-width:3;stroke-linecap:round;stroke-linejoin:miter;stroke:rgb(12.941176%,12.941176%,12.941176%);stroke-opacity:1;stroke-miterlimit:4;" d="M 105.808078 -115.736752 L 402.143415 -115.736752 C 413.869568 -115.736752 423.323211 -106.283109 423.323211 -94.556956 L 423.323211 212.322829 C 423.323211 224.048982 413.869568 233.502625 402.143415 233.502625 L 105.808078 233.502625 C 94.172825 233.502625 84.628282 224.048982 84.628282 212.322829 L 84.628282 -94.556956 C 84.628282 -106.283109 94.172825 -115.736752 105.808078 -115.736752 Z M 105.808078 -115.736752 " transform="matrix(0.0429729,0,0,0.0429729,0,9.239163)"/>
<path style="fill-rule:nonzero;fill:url(#linear2);stroke-width:3;stroke-linecap:round;stroke-linejoin:round;stroke:rgb(12.941176%,12.941176%,12.941176%);stroke-opacity:1;stroke-miterlimit:4;" d="M 126.987873 -105.192304 L 380.96362 -105.192304 C 386.872146 -105.192304 391.598968 -100.465483 391.598968 -94.556956 L 391.598968 201.778381 C 391.598968 207.596008 386.872146 212.322829 380.96362 212.322829 L 126.987873 212.322829 C 121.170247 212.322829 116.443426 207.596008 116.443426 201.778381 L 116.443426 -94.556956 C 116.443426 -100.465483 121.170247 -105.192304 126.987873 -105.192304 Z M 126.987873 -105.192304 " transform="matrix(0.0429729,0,0,0.0429729,0,9.239163)"/>
<path style=" stroke:none;fill-rule:nonzero;fill:url(#linear3);" d="M 8.1875 1.992188 C 7.933594 1.992188 7.730469 2.195312 7.730469 2.445312 L 7.730469 2.902344 L 6.367188 2.902344 C 6.113281 2.902344 5.914062 3.101562 5.914062 3.355469 L 5.914062 5.175781 C 5.914062 5.425781 6.113281 5.628906 6.367188 5.628906 L 15.464844 5.628906 C 15.714844 5.628906 15.917969 5.425781 15.917969 5.175781 L 15.917969 3.355469 C 15.917969 3.101562 15.714844 2.902344 15.464844 2.902344 L 14.097656 2.902344 L 14.097656 2.445312 C 14.097656 2.195312 13.894531 1.992188 13.644531 1.992188 Z M 8.1875 1.992188 "/>
<path style=" stroke:none;fill-rule:nonzero;fill:rgb(0%,0%,0%);fill-opacity:0.235294;" d="M 5.914062 5.175781 L 5.914062 5.628906 C 5.914062 5.882812 6.113281 6.085938 6.367188 6.085938 L 15.464844 6.085938 C 15.714844 6.085938 15.917969 5.882812 15.917969 5.628906 L 15.917969 5.175781 C 15.917969 5.425781 15.714844 5.628906 15.464844 5.628906 L 6.367188 5.628906 C 6.113281 5.628906 5.914062 5.425781 5.914062 5.175781 Z M 5.914062 5.175781 "/>
<path style=" stroke:none;fill-rule:nonzero;fill:rgb(100%,100%,100%);fill-opacity:0.313725;" d="M 8.1875 1.992188 C 7.933594 1.992188 7.730469 2.195312 7.730469 2.445312 L 7.730469 2.617188 C 7.730469 2.363281 7.933594 2.160156 8.1875 2.160156 L 13.644531 2.160156 C 13.894531 2.160156 14.097656 2.363281 14.097656 2.617188 L 14.097656 2.445312 C 14.097656 2.195312 13.894531 1.992188 13.644531 1.992188 Z M 6.367188 2.902344 C 6.113281 2.902344 5.914062 3.101562 5.914062 3.355469 L 5.914062 3.527344 C 5.914062 3.273438 6.113281 3.070312 6.367188 3.070312 L 7.730469 3.070312 L 7.730469 2.902344 Z M 14.097656 2.902344 L 14.097656 3.070312 L 15.464844 3.070312 C 15.714844 3.070312 15.917969 3.273438 15.917969 3.527344 L 15.917969 3.355469 C 15.917969 3.101562 15.714844 2.902344 15.464844 2.902344 Z M 14.097656 2.902344 "/>
<path style="fill:none;stroke-width:11.338583;stroke-linecap:round;stroke-linejoin:round;stroke:rgb(12.941176%,12.941176%,12.941176%);stroke-opacity:1;stroke-miterlimit:4;" d="M 720.103039 175.215911 C 697.7716 175.215911 679.906448 193.081063 679.906448 215.068942 L 679.906448 255.265534 L 560.003795 255.265534 C 537.672355 255.265534 520.150764 272.787125 520.150764 295.118564 L 520.150764 455.217809 C 520.150764 477.205688 537.672355 495.07084 560.003795 495.07084 L 1360.156457 495.07084 C 1382.144336 495.07084 1400.009487 477.205688 1400.009487 455.217809 L 1400.009487 295.118564 C 1400.009487 272.787125 1382.144336 255.265534 1360.156457 255.265534 L 1239.910243 255.265534 L 1239.910243 215.068942 C 1239.910243 193.081063 1222.045091 175.215911 1200.057212 175.215911 Z M 720.103039 175.215911 " transform="matrix(0.0113699,0,0,0.0113699,0,0)"/>
<path style=" stroke:none;fill-rule:nonzero;fill:rgb(0%,0%,0%);fill-opacity:0.235294;" d="M 5.003906 17.910156 L 5.003906 18.136719 C 5.003906 18.386719 5.207031 18.589844 5.457031 18.589844 L 16.371094 18.589844 C 16.625 18.589844 16.828125 18.386719 16.828125 18.136719 L 16.828125 17.910156 C 16.828125 18.160156 16.625 18.363281 16.371094 18.363281 L 5.457031 18.363281 C 5.207031 18.363281 5.003906 18.160156 5.003906 17.910156 Z M 5.003906 17.910156 "/>
<path style=" stroke:none;fill-rule:nonzero;fill:rgb(95.686275%,26.27451%,21.176471%);fill-opacity:1;" d="M 10.460938 6.992188 L 11.371094 6.992188 C 11.621094 6.992188 11.824219 7.199219 11.824219 7.449219 L 11.824219 12.90625 C 11.824219 13.15625 11.621094 13.359375 11.371094 13.359375 L 10.460938 13.359375 C 10.210938 13.359375 10.003906 13.15625 10.003906 12.90625 L 10.003906 7.449219 C 10.003906 7.199219 10.210938 6.992188 10.460938 6.992188 Z M 10.460938 6.992188 "/>
<path style=" stroke:none;fill-rule:nonzero;fill:rgb(95.686275%,26.27451%,21.176471%);fill-opacity:1;" d="M 10.460938 14.726562 L 11.371094 14.726562 C 11.621094 14.726562 11.824219 14.914062 11.824219 15.144531 L 11.824219 16.125 C 11.824219 16.355469 11.621094 16.542969 11.371094 16.542969 L 10.460938 16.542969 C 10.210938 16.542969 10.003906 16.355469 10.003906 16.125 L 10.003906 15.144531 C 10.003906 14.914062 10.210938 14.726562 10.460938 14.726562 Z M 10.460938 14.726562 "/>
</g>
</svg>
